assets/icons/export_table.svg

<?xml version="1.0" encoding="UTF-8" standalone="no"?>
<svg
   viewBox="0 -32 576 576"
   version="1.1"
   id="svg4"
   sodipodi:docname="export_table.svg"
   width="576"
   height="576"
   inkscape:version="1.2.2 (b0a8486541, 2022-12-01)"
   xmlns:inkscape="http://www.inkscape.org/namespaces/inkscape"
   xmlns:sodipodi="http://sodipodi.sourceforge.net/DTD/sodipodi-0.dtd"
   xmlns="http://www.w3.org/2000/svg"
   xmlns:svg="http://www.w3.org/2000/svg">
  <defs
     id="defs8" />
  <sodipodi:namedview
     id="namedview6"
     pagecolor="#ffffff"
     bordercolor="#666666"
     borderopacity="1.0"
     inkscape:showpageshadow="2"
     inkscape:pageopacity="0.0"
     inkscape:pagecheckerboard="0"
     inkscape:deskcolor="#d1d1d1"
     showgrid="false"
     inkscape:zoom="1.1272444"
     inkscape:cx="170.32687"
     inkscape:cy="293.19286"
     inkscape:window-width="1918"
     inkscape:window-height="1057"
     inkscape:window-x="0"
     inkscape:window-y="21"
     inkscape:window-maximized="1"
     inkscape:current-layer="svg4" />
  <!--! Font Awesome Pro 6.3.0 by @fontawesome - https://fontawesome.com License - https://fontawesome.com/license (Commercial License) Copyright 2023 Fonticons, Inc. -->
  <path
     d="M 0,64 C 0,28.7 28.7,0 64,0 h 160 v 128 c 0,17.7 14.3,32 32,32 H 384 V 288 H 216 c -13.3,0 -24,10.7 -24,24 0,13.3 10.7,24 24,24 h 168 v 112 c 0,35.3 -28.7,64 -64,64 H 64 C 28.7,512 0,483.3 0,448 Z m 384,272 v -48 h 110.1 l -39,-39 c -9.4,-9.4 -9.4,-24.6 0,-33.9 9.4,-9.3 24.6,-9.4 33.9,0 l 80,80 c 9.4,9.4 9.4,24.6 0,33.9 l -80,80 c -9.4,9.4 -24.6,9.4 -33.9,0 -9.3,-9.4 -9.4,-24.6 0,-33.9 l 39,-39 H 384 Z m 0,-208 H 256 V 0 Z"
     id="path2" />
</svg>

<svg xmlns="http://www.w3.org/2000/svg" viewBox="0 0 576 512"><!--! Font Awesome Pro 6.3.0 by @fontawesome - https://fontawesome.com License - https://fontawesome.com/license (Commercial License) Copyright 2023 Fonticons, Inc. --><path d="M0 64C0 28.7 28.7 0 64 0H224V128c0 17.7 14.3 32 32 32H384V288H216c-13.3 0-24 10.7-24 24s10.7 24 24 24H384V448c0 35.3-28.7 64-64 64H64c-35.3 0-64-28.7-64-64V64zM384 336V288H494.1l-39-39c-9.4-9.4-9.4-24.6 0-33.9s24.6-9.4 33.9 0l80 80c9.4 9.4 9.4 24.6 0 33.9l-80 80c-9.4 9.4-24.6 9.4-33.9 0s-9.4-24.6 0-33.9l39-39H384zm0-208H256V0L384 128z"/></svg>
